build/img/youtube.svg

<svg width="24" height="24" viewBox="0 0 24 24" fill="none" xmlns="http://www.w3.org/2000/svg">
<path d="M13.9236 11.7996L11.2284 10.542C10.9932 10.4328 10.8 10.5552 10.8 10.8156V13.1844C10.8 13.4448 10.9932 13.5672 11.2284 13.458L13.9224 12.2004C14.1588 12.09 14.1588 11.91 13.9236 11.7996ZM12 0.47998C5.63758 0.47998 0.47998 5.63758 0.47998 12C0.47998 18.3624 5.63758 23.52 12 23.52C18.3624 23.52 23.52 18.3624 23.52 12C23.52 5.63758 18.3624 0.47998 12 0.47998ZM12 16.68C6.10318 16.68 5.99998 16.1484 5.99998 12C5.99998 7.85158 6.10318 7.31998 12 7.31998C17.8968 7.31998 18 7.85158 18 12C18 16.1484 17.8968 16.68 12 16.68Z" fill="#919698"/>
</svg>

<svg width="24" height="24" xmlns="http://www.w3.org/2000/svg">
    <path d="M13.924 11.8l-2.696-1.258c-.235-.11-.428.013-.428.274v2.368c0 .26.193.383.428.274l2.694-1.258c.237-.11.237-.29.002-.4zM12 .48C5.638.48.48 5.638.48 12c0 6.362 5.158 11.52 11.52 11.52 6.362 0 11.52-5.158 11.52-11.52C23.52 5.638 18.362.48 12 .48zm0 16.2c-5.897 0-6-.532-6-4.68s.103-4.68 6-4.68 6 .532 6 4.68-.103 4.68-6 4.68z"/>
</svg>
